X:273
M:C|
L:1/8
K:A
e>fe>d c>d e2|B>cd>c B>c d2|e>fe>d c>d e>a|AA c>A B2A2:|
cA (3A>BA cA c2|dB (3B>cB dB d2|cA (3A>BA cA c>a|A>Bc>A B2A||

